X:1
T:Var hälsad sköna morgonstund
T:Knut Håkanson (1887-1929)
T:Var hälsad sköna morgonstund
T:Op 32 nr 2
%%score { ( 1 2 ) | ( 3 4 ) }
L:1/8
Q:1/4=120
M:4/2
K:D
V:1 treble nm="Vocals"
V:2 treble 
V:3 bass 
V:4 bass 
V:1
 z4"^Instrument change" (A2 G2) (F2{GF} E2) (D2 F2) | %1
w: Var * häl- * sad *|
w: Du * sto- * ra *|
"^Instrument change" A4"^Instrument change" (d2 c2) (B2 A2) ^G4 | %2
w: skö- na * mor- * gon-|
w: dag, du * hel- * ga|
"^Instrument change" !fermata!A4"^Instrument change" (c2 A2) B4 c4 | %3
w: stund, Som * av pro-|
w: dag På * vil- ken|
"^Instrument change" (d2 B2)"^Instrument change" A4 (B2 A2) ^G4 | %4
w: fe- * ters hel- * ga|
w: hem- * lens väl- * be-|
"^Instrument change" (A2 E2- !fermata!E8)"^Instrument change" (F2 A2) | %5
w: mund * * Är *|
w: hag, * * Än- *|
"^Instrument change" B4 (A2 F2) G4 (F2 D2) |"^Instrument change" E8 D8 :| %7
w: oss be- * bå- dad *|vor- den.|
w: nu be- * sö- ker *|jor- den.|
[M:3/2]"^Instrument change" (A2 E2 G4)"^Instrument change" (F2 B2) | %8
w: |
w: Ung- * * a *|
[M:5/2]"^Instrument change" (A2"^Instrument change" E2 G8) !fermata!F8 | %9
w: |
w: sjung- * * a|
[M:3/2]"^Instrument change" (E2"^Instrument change" F2 G4) (F2 D2) | %10
w: |
w: Med * * de *|
"^Instrument change" E4 (E2 F2"^Instrument change" G4) | %11
w: |
w: gam- la; * *|
"^Instrument change" (F2 GF"^Instrument change" E4) (D2 B,2) | %12
w: |
w: sig * * * för- *|
[M:4/2]"^Instrument change" E4"^Instrument change" E4 (F2 E2) (D2 B,2) | %13
w: |
w: sam- la Jor- * dens *|
"^Instrument change" (D2 !fermata!C2) !fermata!B,4 (d2 B2) A4"^Instrument change" | %14
w: |
w: bö- * ner Kring * den|
"^Instrument change" B4 (A2 F2) G4 (F2 D2) | %15
w: |
w: störs- te * av dess *|
"^Instrument change" (E"^Instrument change"F G2) !fermata!F12 |] %16
w: |
w: sö- * * ner.|
V:2
 z4 C4 D4 D4 | E4 (D2 E2) F4 E4 | !fermata!E4 (E2 F2) !courtesy!=G4 G4 | (F2 ^G2) A4 F4 E4 | %4
 !fermata!C12 D4 | (D2"^Instrument change" E2) (F2 D2) (B,2 C2) D4 | %6
 (D4"^Instrument change" C4) D8 :|[M:3/2] E8 D4 |[M:5/2] D4- (D4 C4) !fermata!D8 | %9
[M:3/2] (E2 D2 B,2 C2) D4 | D4 (C2 ^D2 E4) | (D4 A,4) ^G,4 |[M:4/2] A,4 C4 C4 B,4 | %13
 (B,2 !fermata!^A,2) !fermata!B,4 D4 (E2 F2) | %14
 (!courtesy!=G2"^Instrument change" E2) F4 (E2 C2) D4 | (D2 C2) !fermata!C12 |] %16
V:3
 z4 A,4 (A,2 G,2) (F,2 A,2) | A,4 A,4 (D2 C2) B,4 | !fermata!C4 C4 D4 E4 | D4 C4 (D2 C2) B,4 | %4
w: ||||
w: ||||
w: ||||
 !fermata!A,12 (A,2 F,2) | (B,2 C2) D4 (G,2 A,2) B,4 | (B,4 A,2 G,2) F,8 :|[M:3/2] A,8 (A,2 G,2) | %8
w: ||||
w: ||||
w: ||||
[M:5/2] A,4- A,8 !fermata!A,8 |[M:3/2] (B,2 A,2 G,4) A,4 | A,8 B,4 | (B,4 E,4) E,4 | %12
w: ||||
w: ||||
w: ||gam- la||
[M:4/2] C,4 A,4 ^A,4 B,4 | F,4 !fermata!D,4 (!courtesy!=A,2 B,2) C4 | (D2 C2) D4 (B,2 ^A,2) B,4 | %15
w: |||
w: |||
w: |||
 B,4 !fermata!^A,12 |] %16
w: |
w: |
w: |
V:4
 z4 A,,4 D,4 D,4 | C,4 (F,2 E,2) D,4 E,4 | !fermata!A,,4 A,4 (G,2 F,2) E,4 | %3
 B,,4 (F,2 E,2) D,4 E,4 | !fermata!A,,12 D,4 | G,4 F,4 E,4 (B,,2 A,,2) | (G,,4 A,,4) D,8 :| %7
[M:3/2] C,8 (D,2 G,2) |[M:5/2] (F,2 G,2 E,8) !fermata!D,8 |[M:3/2] (G,2 F,2 E,4) (D,2 F,2) | %10
 A,8 E,4 | (B,,4 C,4) E,4 |[M:4/2] A,,4 A,4 F,4 G,4 | %13
 (D,E, !fermata!F,2) !fermata!B,,4 (F,2 G,2) A,4 | G,4 D,4 E,4 (B,,2 !courtesy!=A,,2) | %15
 (G,,F,, E,,2) !fermata!F,,12 |] %16

